X:1
T:Title
%%score { 1 | ( 2 3 ) }
L:1/8
M:3/4
K:Ab
V:1 treble nm="Grand Piano"
V:2 bass 
V:3 bass 
V:1
 z2 z[Q:1/4=94] E CD | [CE]3 c [DG]>B | [CA]3 A AG | [DF]3 A [EG]F | [CE]3 A GA | [DB]3 =A [DB]_c | %6
 [Ec]3 c cc | [GB]3 [Ge] [Ge]=d |[M:7/16] [Ge]/-[Ge]/-[Ge]/-[Ge]-<[Ge] |[M:3/8] [Ae][Ae]>[Gd] | %10
[M:3/4] [Gd]3 e d>c | c3 c cc | c3 c =d>d |[M:3/8] [Ge]3 | EF[EG] |[M:3/4] [EA]3 B c[_Ge] | %16
 [Fd]3 [Fd] [Fc][FB] | e3 A c<B |[M:3/8] [CA]3 |] %19
V:2
 z2 z C A,B, | z2 A,2 z2 | A,,E, A,C CE | z2 A,2 z2 | A,,E, A,C B,C | z2 E,2 z2 | %6
 A,,E, A,[K:treble]E EA | B,,B, G,E, B,,F |[M:7/16] z B,D3/2 |[M:3/8] [A,C][E,C]>[E,B,] | %10
[M:3/4] [E,B,]3 [E,G,E][K:treble] [A,F]>[A,E] | [A,E]3 [A,E] [A,E][G,B,=E] | %12
 [F,A,F]3 [F,A,F] [B,A]>[B,A] |[M:3/8][K:bass] [E,B,]3 | [E,G,][=D,A,B,][_D,B,] | %15
[M:3/4] [C,A,]3 [E,G,E] [A,E][C,A,] | [D,A,]3 [B,,B,] [C,=A,][D,B,] | %17
 [E,CE]3 [F,A,C] [E,A,E]<[E,G,D] |[M:3/8] [A,,A,]3 |] %19
V:3
 x6 | A,,E, z E .[E,,E,]>D | x6 | D,F, z F D,D | x6 | E,,B,, z C [E,,E,]=D | x3[K:treble] x3 | x6 | %8
[M:7/16] E,/-E,/-E,/-E,-<E, |[M:3/8] x3 |[M:3/4] x4[K:treble] x2 | x6 | x6 |[M:3/8][K:bass] x3 | %14
 x3 |[M:3/4] x6 | x6 | x6 |[M:3/8] x3 |] %19

